src/assets/svg/sliders.svg

<svg fill="none" height="16" viewBox="0 0 17 16" width="17" xmlns="http://www.w3.org/2000/svg"><path d="m5.74967.916626c-1.31666 0-2.41914.882504-2.78081 2.083334h-1.80252c-.459999 0-.833332.3725-.833332.83333 0 .46084.373333.83334.833332.83334h1.80252c.36167 1.20083 1.46415 2.08333 2.78081 2.08333 1.60834 0 2.91667-1.30833 2.91667-2.91667 0-1.60833-1.30833-2.916664-2.91667-2.916664zm0 4.166664c-.68916 0-1.25-.56083-1.25-1.25 0-.68916.56084-1.25 1.25-1.25.68917 0 1.25.56084 1.25 1.25 0 .68917-.56083 1.25-1.25 1.25zm4.58333-1.25c0-.46083.3733-.83333.8333-.83333h5c.46 0 .8334.3725.8334.83333 0 .46084-.3734.83334-.8334.83334h-5c-.46 0-.8333-.3725-.8333-.83334zm5.8333 7.50001h-1.8025c-.3616-1.2008-1.4641-2.08334-2.7808-2.08334-1.60833 0-2.91666 1.30834-2.91666 2.91664 0 1.6084 1.30833 2.9167 2.91666 2.9167 1.3167 0 2.4192-.8825 2.7808-2.0833h1.8025c.46 0 .8334-.3725.8334-.8334 0-.4608-.3734-.8333-.8334-.8333zm-4.5833 2.0833c-.6892 0-1.25-.5608-1.25-1.25 0-.6891.5608-1.25 1.25-1.25s1.25.5609 1.25 1.25c0 .6892-.5608 1.25-1.25 1.25zm-4.58333-1.25c0 .4609-.37333.8334-.83333.8334h-5c-.459999 0-.833332-.3725-.833332-.8334 0-.4608.373333-.8333.833332-.8333h5c.46 0 .83333.3725.83333.8333z" fill="#ccc7c7"/></svg>

<svg width="17" height="16" viewBox="0 0 17 16" fill="none" xmlns="http://www.w3.org/2000/svg">
<path d="M5.74967 0.916626C4.43301 0.916626 3.33053 1.79913 2.96886 2.99996H1.16634C0.706341 2.99996 0.333008 3.37246 0.333008 3.83329C0.333008 4.29413 0.706341 4.66663 1.16634 4.66663H2.96886C3.33053 5.86746 4.43301 6.74996 5.74967 6.74996C7.35801 6.74996 8.66634 5.44163 8.66634 3.83329C8.66634 2.22496 7.35801 0.916626 5.74967 0.916626ZM5.74967 5.08329C5.06051 5.08329 4.49967 4.52246 4.49967 3.83329C4.49967 3.14413 5.06051 2.58329 5.74967 2.58329C6.43884 2.58329 6.99967 3.14413 6.99967 3.83329C6.99967 4.52246 6.43884 5.08329 5.74967 5.08329ZM10.333 3.83329C10.333 3.37246 10.7063 2.99996 11.1663 2.99996H16.1663C16.6263 2.99996 16.9997 3.37246 16.9997 3.83329C16.9997 4.29413 16.6263 4.66663 16.1663 4.66663H11.1663C10.7063 4.66663 10.333 4.29413 10.333 3.83329ZM16.1663 11.3333H14.3638C14.0022 10.1325 12.8997 9.24996 11.583 9.24996C9.97467 9.24996 8.66634 10.5583 8.66634 12.1666C8.66634 13.775 9.97467 15.0833 11.583 15.0833C12.8997 15.0833 14.0022 14.2008 14.3638 13H16.1663C16.6263 13 16.9997 12.6275 16.9997 12.1666C16.9997 11.7058 16.6263 11.3333 16.1663 11.3333ZM11.583 13.4166C10.8938 13.4166 10.333 12.8558 10.333 12.1666C10.333 11.4775 10.8938 10.9166 11.583 10.9166C12.2722 10.9166 12.833 11.4775 12.833 12.1666C12.833 12.8558 12.2722 13.4166 11.583 13.4166ZM6.99967 12.1666C6.99967 12.6275 6.62634 13 6.16634 13H1.16634C0.706341 13 0.333008 12.6275 0.333008 12.1666C0.333008 11.7058 0.706341 11.3333 1.16634 11.3333H6.16634C6.62634 11.3333 6.99967 11.7058 6.99967 12.1666Z" fill="#CCC7C7"/>
</svg>
